X: 8265
T: Corkadoragha
R: reel
M: 4/4
K: Gmajor
|:"G"G2(3BAG EGDE|"Am"A2cA eAcA|"G"G2BG EFGB|"C"cdef gedB|
"G"G2(3Bcd eBdB|"C"c2ec gcec|"G"~g3e d>z.de|1 "D"gedB cAFD:|2 "D"gedB cdef||
|:"G"g3f gede|"Am"a2ab aged|"G"~g3f gede|"Am"bage aged|
"G"~g3f gede|"Am"a3b aged|"G"~g3f g>z ba|1 "D"gedB cdef:|2 "D"gedB cAFD||

